svgs/sharp-light/signal-slash.svg

<svg xmlns="http://www.w3.org/2000/svg" viewBox="0 0 640 512"><!--! Font Awesome Pro 6.6.0 by @fontawesome - https://fontawesome.com License - https://fontawesome.com/license (Commercial License) Copyright 2024 Fonticons, Inc. --><path d="M592 16l0-16L560 0l0 16 0 347.9 32 25.3L592 16zM464 451.2L432 426l0 70 0 16 32 0 0-16 0-44.8zM336 350.2l-32-25.3L304 496l0 16 32 0 0-16 0-145.8zM432 112l0 150.9 32 25.3L464 112l0-16-32 0 0 16zM208 288l-32 0 0 16 0 192 0 16 32 0 0-16 0-192 0-16zM80 384l-32 0 0 16 0 96 0 16 32 0 0-16 0-96 0-16zM40.4 18L27.8 8.1 8.1 33.4l12.6 9.8L599.8 494.3l12.6 9.8 19.7-25.2L619.5 469 40.4 18z"/></svg>

<svg xmlns="http://www.w3.org/2000/svg" viewBox="0 0 640 512"><!--! Font Awesome Pro 6.4.2 by @fontawesome - https://fontawesome.com License - https://fontawesome.com/license (Commercial License) Copyright 2023 Fonticons, Inc. --><path d="M592 16V0H560V16 363.9l32 25.3V16zM464 451.2L432 426v70 16h32V496 451.2zM336 350.2l-32-25.3V496v16h32V496 350.2zM432 112V262.9l32 25.3V112 96H432v16zM208 288H176v16V496v16h32V496 304 288zM80 384H48v16 96 16H80V496 400 384zM40.4 18L27.8 8.1 8.1 33.4l12.6 9.8L599.8 494.3l12.6 9.8 19.7-25.2L619.5 469 40.4 18z"/></svg>
